public/icons/check-circle.svg

<svg width="56" height="56" viewBox="0 0 56 56" fill="none" xmlns="http://www.w3.org/2000/svg">
<rect width="56" height="56" rx="28" fill="#F9FAFB"/>
<rect x="12" y="12" width="32" height="32" rx="16" fill="#E8F1FC"/>
<path d="M35.7157 22.3017L26.9608 35.4311C26.752 35.7372 26.4407 35.9378 26.0968 35.9878C25.7528 36.0378 25.4051 35.9329 25.1318 35.6968L18.88 30.1731C18.3283 29.6853 18.2389 28.7955 18.6804 28.1859C19.1219 27.5762 19.9271 27.4775 20.4787 27.9654L25.692 32.5746L33.6565 20.6296C33.9177 20.1965 34.3731 19.9571 34.8419 20.0064C35.3108 20.0556 35.7172 20.3856 35.8998 20.8654C36.0824 21.3451 36.0117 21.8969 35.7157 22.3017Z" fill="#093160"/>
</svg>

<svg xmlns="http://www.w3.org/2000/svg" width="56" height="56" fill="none"><rect width="56" height="56" fill="#F9FAFB" rx="28"/><rect width="32" height="32" x="12" y="12" fill="#E8F1FC" rx="16"/><path fill="#093160" d="m35.716 22.302-8.755 13.13c-.209.305-.52.506-.864.556a1.2 1.2 0 0 1-.965-.291l-6.252-5.524c-.552-.488-.641-1.377-.2-1.987.442-.61 1.247-.709 1.799-.22l5.213 4.609 7.965-11.945c.26-.433.716-.673 1.185-.624s.875.38 1.058.86c.182.48.112 1.03-.184 1.436"/></svg>
